saves/svg/colorbar.svg

<?xml version="1.0" encoding="UTF-8" standalone="no"?>
<!-- Created with matplotlib (https://matplotlib.org/) -->

<svg
   xmlns:dc="http://purl.org/dc/elements/1.1/"
   xmlns:cc="http://creativecommons.org/ns#"
   xmlns:rdf="http://www.w3.org/1999/02/22-rdf-syntax-ns#"
   xmlns:svg="http://www.w3.org/2000/svg"
   xmlns="http://www.w3.org/2000/svg"
   xmlns:xlink="http://www.w3.org/1999/xlink"
   xmlns:sodipodi="http://sodipodi.sourceforge.net/DTD/sodipodi-0.dtd"
   xmlns:inkscape="http://www.inkscape.org/namespaces/inkscape"
   height="432pt"
   version="1.1"
   viewBox="0 0 72 432"
   width="72pt"
   id="svg2181"
   sodipodi:docname="colorbar.svg"
   inkscape:version="0.92.4 (5da689c313, 2019-01-14)">
  <metadata
     id="metadata2185">
    <rdf:RDF>
      <cc:Work
         rdf:about="">
        <dc:format>image/svg+xml</dc:format>
        <dc:type
           rdf:resource="http://purl.org/dc/dcmitype/StillImage" />
      </cc:Work>
    </rdf:RDF>
  </metadata>
  <sodipodi:namedview
     pagecolor="#ffffff"
     bordercolor="#666666"
     borderopacity="1"
     objecttolerance="10"
     gridtolerance="10"
     guidetolerance="10"
     inkscape:pageopacity="0"
     inkscape:pageshadow="2"
     inkscape:window-width="1846"
     inkscape:window-height="1057"
     id="namedview2183"
     showgrid="false"
     inkscape:zoom="1.5416667"
     inkscape:cx="48"
     inkscape:cy="288"
     inkscape:window-x="66"
     inkscape:window-y="-8"
     inkscape:window-maximized="1"
     inkscape:current-layer="text_6" />
  <defs
     id="defs2049">
    <style
       type="text/css"
       id="style2047">
*{stroke-linecap:butt;stroke-linejoin:round;}
  </style>
  </defs>
  <g
     id="figure_1"
     style="stroke-linecap:butt;stroke-linejoin:round">
    <g
       id="axes_1"
       style="stroke-linecap:butt;stroke-linejoin:round">
      <g
         id="matplotlib.axis_2"
         style="stroke-linecap:butt;stroke-linejoin:round">
        <g
           id="text_6"
           style="stroke-linecap:butt;stroke-linejoin:round">
          <!-- # Districts -->
          <defs
             id="defs2143">
            <path
               d="M 51.125,44 H 36.921875 L 32.8125,27.6875 H 47.125 Z M 43.796875,71.78125 38.71875,51.515625 h 14.265625 l 5.125,20.265625 h 7.8125 L 60.890625,51.515625 H 76.125 V 44 H 58.984375 l -4,-16.3125 h 15.53125 v -7.46875 h -17.4375 L 48,0 h -7.8125 l 5.03125,20.21875 H 30.90625 L 25.875,0 h -7.859375 l 5.078125,20.21875 h -15.375 v 7.46875 h 17.1875 L 29,44 H 13.28125 v 7.515625 h 17.625 l 4.984375,20.265625 z"
               id="DejaVuSans-35"
               inkscape:connector-curvature="0"
               style="stroke-linecap:butt;stroke-linejoin:round" />
            <path
               id="DejaVuSans-32"
               d=""
               inkscape:connector-curvature="0"
               style="stroke-linecap:butt;stroke-linejoin:round" />
            <path
               d="M 19.671875,64.796875 V 8.109375 H 31.59375 q 15.09375,0 22.09375,6.828125 7,6.84375 7,21.59375 0,14.640625 -7,21.453125 -7,6.8125 -22.09375,6.8125 z M 9.8125,72.90625 h 20.265625 q 21.1875,0 31.09375,-8.8125 9.921875,-8.8125 9.921875,-27.5625 0,-18.859375 -9.96875,-27.703125 Q 51.171875,0 30.078125,0 H 9.8125 Z"
               id="DejaVuSans-68"
               inkscape:connector-curvature="0"
               style="stroke-linecap:butt;stroke-linejoin:round" />
            <path
               d="M 9.421875,54.6875 H 18.40625 V 0 H 9.421875 Z m 0,21.296875 H 18.40625 V 64.59375 H 9.421875 Z"
               id="DejaVuSans-105"
               inkscape:connector-curvature="0"
               style="stroke-linecap:butt;stroke-linejoin:round" />
            <path
               d="m 44.28125,53.078125 v -8.5 Q 40.484375,46.53125 36.375,47.5 q -4.09375,0.984375 -8.5,0.984375 -6.6875,0 -10.03125,-2.046875 Q 14.5,44.390625 14.5,40.28125 q 0,-3.125 2.390625,-4.90625 2.390625,-1.78125 9.625,-3.390625 l 3.078125,-0.6875 Q 39.15625,29.25 43.1875,25.515625 47.21875,21.78125 47.21875,15.09375 q 0,-7.625 -6.03125,-12.078125 -6.03125,-4.4375 -16.578125,-4.4375 -4.390625,0 -9.15625,0.859375 Q 10.6875,0.296875 5.421875,2 v 9.28125 q 4.984375,-2.59375 9.8125,-3.890625 4.828125,-1.28125 9.578125,-1.28125 6.34375,0 9.75,2.171875 3.421875,2.171875 3.421875,6.125 0,3.65625 -2.46875,5.609375 -2.453125,1.953125 -10.8125,3.765625 l -3.125,0.734375 q -8.34375,1.75 -12.0625,5.390625 -3.703125,3.640625 -3.703125,9.984375 0,7.71875 5.46875,11.90625 Q 16.75,56 26.8125,56 q 4.96875,0 9.359375,-0.734375 4.40625,-0.71875 8.109375,-2.1875 z"
               id="DejaVuSans-115"
               inkscape:connector-curvature="0"
               style="stroke-linecap:butt;stroke-linejoin:round" />
            <path
               d="M 18.3125,70.21875 V 54.6875 h 18.5 v -6.984375 h -18.5 v -29.6875 q 0,-6.6875 1.828125,-8.59375 1.828125,-1.90625 7.453125,-1.90625 H 36.8125 V 0 H 27.59375 Q 17.1875,0 13.234375,3.875 9.28125,7.765625 9.28125,18.015625 v 29.6875 H 2.6875 V 54.6875 h 6.59375 v 15.53125 z"
               id="DejaVuSans-116"
               inkscape:connector-curvature="0"
               style="stroke-linecap:butt;stroke-linejoin:round" />
            <path
               d="m 41.109375,46.296875 q -1.515625,0.875 -3.296875,1.28125 Q 36.03125,48 33.890625,48 26.265625,48 22.1875,43.046875 18.109375,38.09375 18.109375,28.8125 V 0 h -9.03125 v 54.6875 h 9.03125 v -8.5 q 2.84375,4.984375 7.375,7.390625 Q 30.03125,56 36.53125,56 q 0.921875,0 2.046875,-0.125 1.125,-0.109375 2.484375,-0.359375 z"
               id="DejaVuSans-114"
               inkscape:connector-curvature="0"
               style="stroke-linecap:butt;stroke-linejoin:round" />
            <path
               d="M 48.78125,52.59375 V 44.1875 q -3.8125,2.109375 -7.640625,3.15625 -3.828125,1.046875 -7.734375,1.046875 -8.75,0 -13.59375,-5.546875 -4.828125,-5.53125 -4.828125,-15.546875 0,-10.015625 4.828125,-15.5625 4.84375,-5.53125 13.59375,-5.53125 3.90625,0 7.734375,1.046875 3.828125,1.046875 7.640625,3.15625 v -8.3125 q -3.765625,-1.75 -7.796875,-2.625 -4.015625,-0.890625 -8.5625,-0.890625 -12.359375,0 -19.640625,7.765625 -7.265625,7.765625 -7.265625,20.953125 0,13.375 7.34375,21.03125 Q 20.21875,56 33.015625,56 q 4.140625,0 8.09375,-0.859375 3.953125,-0.84375 7.671875,-2.546875 z"
               id="DejaVuSans-99"
               inkscape:connector-curvature="0"
               style="stroke-linecap:butt;stroke-linejoin:round" />
            <path
               d="M 8.5 21.578125 L 8.5 54.6875 L 17.484375 54.6875 L 17.484375 21.921875 Q 17.484375 14.15625 20.5 10.265625 Q 23.53125 6.390625 29.59375 6.390625 Q 36.859375 6.390625 41.078125 11.03125 Q 45.3125 15.671875 45.3125 23.6875 L 45.3125 54.6875 L 54.296875 54.6875 L 54.296875 0 L 45.3125 0 L 45.3125 8.40625 Q 42.046875 3.421875 37.71875 1 Q 33.40625 -1.421875 27.6875 -1.421875 Q 18.265625 -1.421875 13.375 4.4375 Q 8.5 10.296875 8.5 21.578125 z M 31.109375 56 z M 27.390625 79.984375 L 34.625 79.984375 L 46.578125 61.625 L 39.796875 61.625 L 31 73.578125 L 22.21875 61.625 L 15.4375 61.625 z "
               id="DejaVuSans-251"
               inkscape:connector-curvature="0"
               style="stroke-linecap:butt;stroke-linejoin:round" />
          </defs>
          <g
             transform="matrix(0,-0.1,-0.1,0,96.123438,241.26141)"
             id="g2167"
             style="stroke-linecap:butt;stroke-linejoin:round">
            <use
               xlink:href="#DejaVuSans-35"
               id="use2145"
               style="stroke-linecap:butt;stroke-linejoin:round"
               x="0"
               y="0"
               width="100%"
               height="100%" />
            <use
               x="83.789062"
               xlink:href="#DejaVuSans-32"
               id="use2147"
               style="stroke-linecap:butt;stroke-linejoin:round"
               y="0"
               width="100%"
               height="100%" />
            <use
               x="115.57617"
               xlink:href="#DejaVuSans-68"
               id="use2149"
               style="stroke-linecap:butt;stroke-linejoin:round"
               y="0"
               width="100%"
               height="100%" />
            <use
               x="192.57812"
               xlink:href="#DejaVuSans-105"
               id="use2151"
               style="stroke-linecap:butt;stroke-linejoin:round"
               y="0"
               width="100%"
               height="100%" />
            <use
               x="220.36133"
               xlink:href="#DejaVuSans-115"
               id="use2153"
               style="stroke-linecap:butt;stroke-linejoin:round"
               y="0"
               width="100%"
               height="100%" />
            <use
               x="272.46094"
               xlink:href="#DejaVuSans-116"
               id="use2155"
               style="stroke-linecap:butt;stroke-linejoin:round"
               y="0"
               width="100%"
               height="100%" />
            <use
               x="311.66992"
               xlink:href="#DejaVuSans-114"
               id="use2157"
               style="stroke-linecap:butt;stroke-linejoin:round"
               y="0"
               width="100%"
               height="100%" />
            <use
               x="352.7832"
               xlink:href="#DejaVuSans-105"
               id="use2159"
               style="stroke-linecap:butt;stroke-linejoin:round"
               y="0"
               width="100%"
               height="100%" />
            <use
               x="380.56641"
               xlink:href="#DejaVuSans-99"
               id="use2161"
               style="stroke-linecap:butt;stroke-linejoin:round"
               y="0"
               width="100%"
               height="100%" />
            <use
               x="435.54688"
               xlink:href="#DejaVuSans-116"
               id="use2163"
               style="stroke-linecap:butt;stroke-linejoin:round"
               y="0"
               width="100%"
               height="100%" />
            <use
               x="474.75586"
               xlink:href="#DejaVuSans-251"
               id="use2165"
               style="stroke-linecap:butt;stroke-linejoin:round"
               y="0"
               width="100%"
               height="100%" />
          </g>
        </g>
      </g>
    </g>
  </g>
  <defs
     id="defs2179">
    <clipPath
       id="pe01859fc93">
      <rect
         height="326.16"
         width="28.8"
         x="36"
         y="51.84"
         id="rect2176" />
    </clipPath>
  </defs>
</svg>

<?xml version="1.0" encoding="utf-8" standalone="no"?>
<!DOCTYPE svg PUBLIC "-//W3C//DTD SVG 1.1//EN"
  "http://www.w3.org/Graphics/SVG/1.1/DTD/svg11.dtd">
<!-- Created with matplotlib (https://matplotlib.org/) -->
<svg height="432pt" version="1.1" viewBox="0 0 72 432" width="72pt" xmlns="http://www.w3.org/2000/svg" xmlns:xlink="http://www.w3.org/1999/xlink">
 <defs>
  <style type="text/css">
*{stroke-linecap:butt;stroke-linejoin:round;}
  </style>
 </defs>
 <g id="figure_1">
  <g id="patch_1">
   <path d="M 0 432 L 72 432 L 72 0 L 0 0 z" style="fill:#ffffff;"/>
  </g>
  <g id="axes_1">
   <g id="patch_2">
    <path clip-path="url(#pe01859fc93)" d="M 36 378 L 36 376.725937 L 36 53.114062 L 36 51.84 L 64.8 51.84 L 64.8 53.114062 L 64.8 376.725937 L 64.8 378 z" style="fill:#ffffff;stroke:#ffffff;stroke-linejoin:miter;stroke-width:0.01;"/>
   </g>
   <image height="326" id="image4670cd4393" transform="scale(1 -1)translate(0 -326)" width="29" x="36" xlink:href="data:image/png;base64,
iVBORw0KGgoAAAANSUhEUgAAAB0AAAFGCAYAAACWrZSPAAAABHNCSVQICAgIfAhkiAAAAgZJREFUeJztnYFtxDAMA+3Yo3WE7j/Kp0uUOuCPWuAgk6Hk4NPun/37ruG6az/TzHX3s+ehRKfzxGU63ruYTuehlJEITYHjvQvolNEUOl4Aui2JZDKSJRxEU8ZkpGoahUoCv+HwjdAaKVj3ZTQdZ5o09YSDxr01UhZaIyXLpOk8U6WpZXO4b42UhY4zO2Wy5Qn8hkMWShwvYyTPq1ePplCnNVIQqjFSp0wWyhhJs4JqntMGfhZqMtI8tEbKQjWd9kVHFmpaQS3QhkOyPMfr6VSUSNU0WXf8S7rV0RauhkMWqnFv15Xvg1bTLFTTaadMFqrRtIn0fdBqmoVqOqWmzPy12KOpyEjVNFkNh2h5NnxVOADu9Wiqyd4aKVoNhywU+L2MaV3RxCCk6bJoui3uhf5wpeV4kcBHsldkJERTolPRXYYx0jhSZSRPODxMpzVSFDrOZIwk0vQhLlA1UrIgI1kCX2QkKByqaa6Y51QEBR6ZGqnQfynRlIE0/YxDTeFQIwWLMdIRGWleU9GUOdU0WKpwkGh6D9CpaF05SDho7qfM8RJQzWjr5pCFEoFvWleI4+2USRZ1vIiRuoLmShT4mlubKJGYzaFTJgpF9l7LjqS6y0g2B+R4TW/MCPeaNAWg0JSZr3s0H9Md4IMZSlOkU8v/l4GMBEAJI1E/95rnUpoinc5DESP9AReOjY5wk3dZAAAAAElFTkSuQmCC" y="-52"/>
   <g id="matplotlib.axis_1"/>
   <g id="matplotlib.axis_2">
    <g id="ytick_1">
     <g id="line2d_1">
      <defs>
       <path d="M 0 0 L 3.5 0 " id="mce6dd29eb3" style="stroke:#000000;stroke-width:0.8;"/>
      </defs>
      <g>
       <use style="stroke:#000000;stroke-width:0.8;" x="64.8" xlink:href="#mce6dd29eb3" y="378"/>
      </g>
     </g>
     <g id="text_1">
      <!-- 5 -->
      <defs>
       <path d="M 10.796875 72.90625 L 49.515625 72.90625 L 49.515625 64.59375 L 19.828125 64.59375 L 19.828125 46.734375 Q 21.96875 47.46875 24.109375 47.828125 Q 26.265625 48.1875 28.421875 48.1875 Q 40.625 48.1875 47.75 41.5 Q 54.890625 34.8125 54.890625 23.390625 Q 54.890625 11.625 47.5625 5.09375 Q 40.234375 -1.421875 26.90625 -1.421875 Q 22.3125 -1.421875 17.546875 -0.640625 Q 12.796875 0.140625 7.71875 1.703125 L 7.71875 11.625 Q 12.109375 9.234375 16.796875 8.0625 Q 21.484375 6.890625 26.703125 6.890625 Q 35.15625 6.890625 40.078125 11.328125 Q 45.015625 15.765625 45.015625 23.390625 Q 45.015625 31 40.078125 35.4375 Q 35.15625 39.890625 26.703125 39.890625 Q 22.75 39.890625 18.8125 39.015625 Q 14.890625 38.140625 10.796875 36.28125 z" id="DejaVuSans-53"/>
      </defs>
      <g transform="translate(71.8 381.799219)scale(0.1 -0.1)">
       <use xlink:href="#DejaVuSans-53"/>
      </g>
     </g>
    </g>
    <g id="ytick_2">
     <g id="line2d_2">
      <g>
       <use style="stroke:#000000;stroke-width:0.8;" x="64.8" xlink:href="#mce6dd29eb3" y="310.05"/>
      </g>
     </g>
     <g id="text_2">
      <!-- 10 -->
      <defs>
       <path d="M 12.40625 8.296875 L 28.515625 8.296875 L 28.515625 63.921875 L 10.984375 60.40625 L 10.984375 69.390625 L 28.421875 72.90625 L 38.28125 72.90625 L 38.28125 8.296875 L 54.390625 8.296875 L 54.390625 0 L 12.40625 0 z" id="DejaVuSans-49"/>
       <path d="M 31.78125 66.40625 Q 24.171875 66.40625 20.328125 58.90625 Q 16.5 51.421875 16.5 36.375 Q 16.5 21.390625 20.328125 13.890625 Q 24.171875 6.390625 31.78125 6.390625 Q 39.453125 6.390625 43.28125 13.890625 Q 47.125 21.390625 47.125 36.375 Q 47.125 51.421875 43.28125 58.90625 Q 39.453125 66.40625 31.78125 66.40625 zM 31.78125 74.21875 Q 44.046875 74.21875 50.515625 64.515625 Q 56.984375 54.828125 56.984375 36.375 Q 56.984375 17.96875 50.515625 8.265625 Q 44.046875 -1.421875 31.78125 -1.421875 Q 19.53125 -1.421875 13.0625 8.265625 Q 6.59375 17.96875 6.59375 36.375 Q 6.59375 54.828125 13.0625 64.515625 Q 19.53125 74.21875 31.78125 74.21875 z" id="DejaVuSans-48"/>
      </defs>
      <g transform="translate(71.8 313.849219)scale(0.1 -0.1)">
       <use xlink:href="#DejaVuSans-49"/>
       <use x="63.623047" xlink:href="#DejaVuSans-48"/>
      </g>
     </g>
    </g>
    <g id="ytick_3">
     <g id="line2d_3">
      <g>
       <use style="stroke:#000000;stroke-width:0.8;" x="64.8" xlink:href="#mce6dd29eb3" y="242.1"/>
      </g>
     </g>
     <g id="text_3">
      <!-- 15 -->
      <g transform="translate(71.8 245.899219)scale(0.1 -0.1)">
       <use xlink:href="#DejaVuSans-49"/>
       <use x="63.623047" xlink:href="#DejaVuSans-53"/>
      </g>
     </g>
    </g>
    <g id="ytick_4">
     <g id="line2d_4">
      <g>
       <use style="stroke:#000000;stroke-width:0.8;" x="64.8" xlink:href="#mce6dd29eb3" y="174.15"/>
      </g>
     </g>
     <g id="text_4">
      <!-- 20 -->
      <defs>
       <path d="M 19.1875 8.296875 L 53.609375 8.296875 L 53.609375 0 L 7.328125 0 L 7.328125 8.296875 Q 12.9375 14.109375 22.625 23.890625 Q 32.328125 33.6875 34.8125 36.53125 Q 39.546875 41.84375 41.421875 45.53125 Q 43.3125 49.21875 43.3125 52.78125 Q 43.3125 58.59375 39.234375 62.25 Q 35.15625 65.921875 28.609375 65.921875 Q 23.96875 65.921875 18.8125 64.3125 Q 13.671875 62.703125 7.8125 59.421875 L 7.8125 69.390625 Q 13.765625 71.78125 18.9375 73 Q 24.125 74.21875 28.421875 74.21875 Q 39.75 74.21875 46.484375 68.546875 Q 53.21875 62.890625 53.21875 53.421875 Q 53.21875 48.921875 51.53125 44.890625 Q 49.859375 40.875 45.40625 35.40625 Q 44.1875 33.984375 37.640625 27.21875 Q 31.109375 20.453125 19.1875 8.296875 z" id="DejaVuSans-50"/>
      </defs>
      <g transform="translate(71.8 177.949219)scale(0.1 -0.1)">
       <use xlink:href="#DejaVuSans-50"/>
       <use x="63.623047" xlink:href="#DejaVuSans-48"/>
      </g>
     </g>
    </g>
    <g id="ytick_5">
     <g id="line2d_5">
      <g>
       <use style="stroke:#000000;stroke-width:0.8;" x="64.8" xlink:href="#mce6dd29eb3" y="106.2"/>
      </g>
     </g>
     <g id="text_5">
      <!-- 25 -->
      <g transform="translate(71.8 109.999219)scale(0.1 -0.1)">
       <use xlink:href="#DejaVuSans-50"/>
       <use x="63.623047" xlink:href="#DejaVuSans-53"/>
      </g>
     </g>
    </g>
    <g id="text_6">
     <!-- # Districts -->
     <defs>
      <path d="M 51.125 44 L 36.921875 44 L 32.8125 27.6875 L 47.125 27.6875 zM 43.796875 71.78125 L 38.71875 51.515625 L 52.984375 51.515625 L 58.109375 71.78125 L 65.921875 71.78125 L 60.890625 51.515625 L 76.125 51.515625 L 76.125 44 L 58.984375 44 L 54.984375 27.6875 L 70.515625 27.6875 L 70.515625 20.21875 L 53.078125 20.21875 L 48 0 L 40.1875 0 L 45.21875 20.21875 L 30.90625 20.21875 L 25.875 0 L 18.015625 0 L 23.09375 20.21875 L 7.71875 20.21875 L 7.71875 27.6875 L 24.90625 27.6875 L 29 44 L 13.28125 44 L 13.28125 51.515625 L 30.90625 51.515625 L 35.890625 71.78125 z" id="DejaVuSans-35"/>
      <path id="DejaVuSans-32"/>
      <path d="M 19.671875 64.796875 L 19.671875 8.109375 L 31.59375 8.109375 Q 46.6875 8.109375 53.6875 14.9375 Q 60.6875 21.78125 60.6875 36.53125 Q 60.6875 51.171875 53.6875 57.984375 Q 46.6875 64.796875 31.59375 64.796875 zM 9.8125 72.90625 L 30.078125 72.90625 Q 51.265625 72.90625 61.171875 64.09375 Q 71.09375 55.28125 71.09375 36.53125 Q 71.09375 17.671875 61.125 8.828125 Q 51.171875 0 30.078125 0 L 9.8125 0 z" id="DejaVuSans-68"/>
      <path d="M 9.421875 54.6875 L 18.40625 54.6875 L 18.40625 0 L 9.421875 0 zM 9.421875 75.984375 L 18.40625 75.984375 L 18.40625 64.59375 L 9.421875 64.59375 z" id="DejaVuSans-105"/>
      <path d="M 44.28125 53.078125 L 44.28125 44.578125 Q 40.484375 46.53125 36.375 47.5 Q 32.28125 48.484375 27.875 48.484375 Q 21.1875 48.484375 17.84375 46.4375 Q 14.5 44.390625 14.5 40.28125 Q 14.5 37.15625 16.890625 35.375 Q 19.28125 33.59375 26.515625 31.984375 L 29.59375 31.296875 Q 39.15625 29.25 43.1875 25.515625 Q 47.21875 21.78125 47.21875 15.09375 Q 47.21875 7.46875 41.1875 3.015625 Q 35.15625 -1.421875 24.609375 -1.421875 Q 20.21875 -1.421875 15.453125 -0.5625 Q 10.6875 0.296875 5.421875 2 L 5.421875 11.28125 Q 10.40625 8.6875 15.234375 7.390625 Q 20.0625 6.109375 24.8125 6.109375 Q 31.15625 6.109375 34.5625 8.28125 Q 37.984375 10.453125 37.984375 14.40625 Q 37.984375 18.0625 35.515625 20.015625 Q 33.0625 21.96875 24.703125 23.78125 L 21.578125 24.515625 Q 13.234375 26.265625 9.515625 29.90625 Q 5.8125 33.546875 5.8125 39.890625 Q 5.8125 47.609375 11.28125 51.796875 Q 16.75 56 26.8125 56 Q 31.78125 56 36.171875 55.265625 Q 40.578125 54.546875 44.28125 53.078125 z" id="DejaVuSans-115"/>
      <path d="M 18.3125 70.21875 L 18.3125 54.6875 L 36.8125 54.6875 L 36.8125 47.703125 L 18.3125 47.703125 L 18.3125 18.015625 Q 18.3125 11.328125 20.140625 9.421875 Q 21.96875 7.515625 27.59375 7.515625 L 36.8125 7.515625 L 36.8125 0 L 27.59375 0 Q 17.1875 0 13.234375 3.875 Q 9.28125 7.765625 9.28125 18.015625 L 9.28125 47.703125 L 2.6875 47.703125 L 2.6875 54.6875 L 9.28125 54.6875 L 9.28125 70.21875 z" id="DejaVuSans-116"/>
      <path d="M 41.109375 46.296875 Q 39.59375 47.171875 37.8125 47.578125 Q 36.03125 48 33.890625 48 Q 26.265625 48 22.1875 43.046875 Q 18.109375 38.09375 18.109375 28.8125 L 18.109375 0 L 9.078125 0 L 9.078125 54.6875 L 18.109375 54.6875 L 18.109375 46.1875 Q 20.953125 51.171875 25.484375 53.578125 Q 30.03125 56 36.53125 56 Q 37.453125 56 38.578125 55.875 Q 39.703125 55.765625 41.0625 55.515625 z" id="DejaVuSans-114"/>
      <path d="M 48.78125 52.59375 L 48.78125 44.1875 Q 44.96875 46.296875 41.140625 47.34375 Q 37.3125 48.390625 33.40625 48.390625 Q 24.65625 48.390625 19.8125 42.84375 Q 14.984375 37.3125 14.984375 27.296875 Q 14.984375 17.28125 19.8125 11.734375 Q 24.65625 6.203125 33.40625 6.203125 Q 37.3125 6.203125 41.140625 7.25 Q 44.96875 8.296875 48.78125 10.40625 L 48.78125 2.09375 Q 45.015625 0.34375 40.984375 -0.53125 Q 36.96875 -1.421875 32.421875 -1.421875 Q 20.0625 -1.421875 12.78125 6.34375 Q 5.515625 14.109375 5.515625 27.296875 Q 5.515625 40.671875 12.859375 48.328125 Q 20.21875 56 33.015625 56 Q 37.15625 56 41.109375 55.140625 Q 45.0625 54.296875 48.78125 52.59375 z" id="DejaVuSans-99"/>
     </defs>
     <g transform="translate(96.123438 241.261406)rotate(-90)scale(0.1 -0.1)">
      <use xlink:href="#DejaVuSans-35"/>
      <use x="83.789062" xlink:href="#DejaVuSans-32"/>
      <use x="115.576172" xlink:href="#DejaVuSans-68"/>
      <use x="192.578125" xlink:href="#DejaVuSans-105"/>
      <use x="220.361328" xlink:href="#DejaVuSans-115"/>
      <use x="272.460938" xlink:href="#DejaVuSans-116"/>
      <use x="311.669922" xlink:href="#DejaVuSans-114"/>
      <use x="352.783203" xlink:href="#DejaVuSans-105"/>
      <use x="380.566406" xlink:href="#DejaVuSans-99"/>
      <use x="435.546875" xlink:href="#DejaVuSans-116"/>
      <use x="474.755859" xlink:href="#DejaVuSans-115"/>
     </g>
    </g>
   </g>
   <g id="patch_3">
    <path d="M 36 378 L 36 376.725937 L 36 53.114062 L 36 51.84 L 64.8 51.84 L 64.8 53.114062 L 64.8 376.725937 L 64.8 378 z" style="fill:none;stroke:#000000;stroke-linejoin:miter;stroke-width:0.8;"/>
   </g>
  </g>
 </g>
 <defs>
  <clipPath id="pe01859fc93">
   <rect height="326.16" width="28.8" x="36" y="51.84"/>
  </clipPath>
 </defs>
</svg>
